X: 18849
T: In And Out The Windows
R: polka
M: 2/4
K: Amajor
|:B/|ce AB|cB- B>A|Bd GB|BA- A>B|
cE AB|cB- B>A|Bd GB|BA- A3/2:|
|:B/|c>c BA|GB- B>c|d>d cB|Ac- c>d|
e2 a2|gf- fg/f/|ee d/c/B/G/|A2- A3/2:|

